src/images/svg/career-tip.svg

<svg width="24" height="24" viewBox="0 0 24 24" fill="none" xmlns="http://www.w3.org/2000/svg">
<path fill-rule="evenodd" clip-rule="evenodd" d="M24 12C24 18.627 18.627 24 12 24C5.373 24 0 18.627 0 12C0 5.373 5.373 0 12 0C18.627 0 24 5.373 24 12ZM13.5 18V10.5C13.5 9.672 12.8295 9 12 9H9C9 9.828 9.6705 10.5 10.5 10.5V18C10.5 18.828 11.1705 19.5 12 19.5H15C15 18.672 14.3295 18 13.5 18ZM13.5 6C13.5 5.172 12.8295 4.5 12 4.5C11.1705 4.5 10.5 5.172 10.5 6C10.5 6.828 11.1705 7.5 12 7.5C12.8295 7.5 13.5 6.828 13.5 6Z" fill="#333333"/>
</svg>

<svg width="24" height="24" fill="none" xmlns="http://www.w3.org/2000/svg"><path fill-rule="evenodd" clip-rule="evenodd" d="M24 12c0 6.627-5.373 12-12 12S0 18.627 0 12 5.373 0 12 0s12 5.373 12 12zm-10.5 6v-7.5A1.5 1.5 0 0 0 12 9H9c0 .828.67 1.5 1.5 1.5V18c0 .828.67 1.5 1.5 1.5h3a1.5 1.5 0 0 0-1.5-1.5zm0-12a1.5 1.5 0 1 0-3 0 1.5 1.5 0 0 0 3 0z" fill="#333"/></svg>
